public/img/colabs_logotype_black.svg

<svg clip-rule="evenodd" fill-rule="evenodd" stroke-linejoin="round" stroke-miterlimit="2" viewBox="0 0 372 94" xmlns="http://www.w3.org/2000/svg"><g transform="matrix(.790626 0 0 .629847 -272.9546 -1.4278)"><path d="m345.239 2.267h469.254v148.812h-469.254z" fill="none"/><path d="m352.664 502.415c30.222 0 54.76 24.537 54.76 54.76s-24.538 54.76-54.76 54.76c-30.223 0-54.76-24.537-54.76-54.76s24.537-54.76 54.76-54.76zm-16.225 54.76c.118-15.427-9.899-19.817-12.323-21.22-1.158-.671-1.604-.246-.991.944 0 0 6.162 10.184 6.162 20.276 0 10.091-6.162 20.275-6.162 20.276-.613 1.189-.167 1.614.991.943 2.424-1.402 12.441-5.793 12.323-21.219zm16.833-23.681c-10.092 0-20.276-5.249-20.276-5.249-1.19-.613-1.614-.167-.944.991 0 0 7.196 12.43 21.22 12.322 14.024.108 21.22-12.322 21.22-12.322.671-1.158.246-1.604-.944-.991 0 0-10.184 5.249-20.276 5.249zm23.681 23.681c0-10.092 5.249-20.276 5.249-20.276.613-1.19.167-1.615-.991-.944 0 0-12.43 7.196-12.323 21.22-.107 14.023 12.323 21.22 12.323 21.22 1.158.67 1.604.246.991-.944 0 0-5.249-10.184-5.249-20.276zm-23.681 23.68c10.092 0 20.276 5.25 20.276 5.25 1.19.613 1.615.167.944-.991 0 0-7.196-12.43-21.22-12.323-14.024-.107-21.22 12.323-21.22 12.323-.67 1.158-.246 1.604.944.991 0 0 10.184-5.25 20.276-5.25z" transform="matrix(1.03939 0 0 1.30471 38.9473 -649.798)"/><g fill-rule="nonzero" transform="matrix(1.26482 0 0 1.58769 -128.623 -621.033)"><path d="m507.797 460.999c-6.912 0-12.203-1.867-15.872-5.6s-5.504-8.821-5.504-15.264c0-6.827 1.781-12.139 5.344-15.936s8.885-5.696 15.968-5.696c2.475 0 4.704.181 6.688.544s3.851.864 5.6 1.504v7.552c-3.627-1.493-7.509-2.24-11.648-2.24-4.693 0-8.064 1.173-10.112 3.52s-3.072 5.931-3.072 10.752c0 9.045 4.437 13.568 13.312 13.568 2.005 0 3.989-.181 5.952-.544s3.84-.907 5.632-1.632v7.616c-1.749.555-3.616 1.003-5.6 1.344s-4.213.512-6.688.512z"/><path d="m543.573 460.999c-13.355 0-20.032-7.019-20.032-21.056 0-7.552 1.685-13.013 5.056-16.384s8.363-5.056 14.976-5.056 11.605 1.685 14.976 5.056 5.056 8.832 5.056 16.384c0 14.037-6.677 21.056-20.032 21.056zm0-7.36c3.883 0 6.731-1.12 8.544-3.36s2.72-5.685 2.72-10.336c0-5.163-.907-8.8-2.72-10.912s-4.661-3.168-8.544-3.168-6.731 1.056-8.544 3.168-2.72 5.749-2.72 10.912c0 4.651.907 8.096 2.72 10.336s4.661 3.36 8.544 3.36z"/><path d="m576.469 450.119c-1.493 0-2.859-.363-4.096-1.088s-2.219-1.696-2.944-2.912-1.088-2.592-1.088-4.128.363-2.923 1.088-4.16 1.707-2.219 2.944-2.944 2.603-1.088 4.096-1.088c1.536 0 2.923.363 4.16 1.088s2.219 1.707 2.944 2.944 1.088 2.624 1.088 4.16-.363 2.912-1.088 4.128-1.707 2.187-2.944 2.912-2.624 1.088-4.16 1.088z"/><path d="m590.741 460.359v-41.216h8.64v34.56h20.288v6.656z"/><path d="m623.125 460.359 15.744-41.216h9.472l15.68 41.216h-8.96l-3.904-9.92h-15.168l-3.84 9.92zm14.144-16.576h12.608l-6.336-16.576z"/><path d="m670.037 460.359v-41.216h20.864c4.139 0 7.221.971 9.248 2.912s3.04 4.683 3.04 8.224c0 2.219-.427 4.064-1.28 5.536s-2.005 2.613-3.456 3.424c1.92.597 3.445 1.589 4.576 2.976s1.696 3.424 1.696 6.112c0 3.968-1.12 6.965-3.36 8.992s-5.472 3.04-9.696 3.04zm8.64-24.128h10.624c2.091 0 3.584-.459 4.48-1.376s1.344-2.208 1.344-3.872c0-1.835-.459-3.2-1.376-4.096s-2.613-1.344-5.088-1.344h-9.984zm0 17.792h10.944c2.176 0 3.776-.448 4.8-1.344s1.536-2.475 1.536-4.736c0-1.835-.501-3.2-1.504-4.096s-2.805-1.344-5.408-1.344h-10.368z"/><path d="m723.541 460.999c-2.645 0-5.109-.192-7.392-.576s-4.256-.939-5.92-1.664v-7.616c1.877.768 3.904 1.387 6.08 1.856s4.309.704 6.4.704c2.987 0 5.184-.277 6.592-.832s2.112-1.813 2.112-3.776c0-1.237-.299-2.219-.896-2.944s-1.632-1.376-3.104-1.952-3.552-1.227-6.24-1.952c-4.309-1.195-7.339-2.688-9.088-4.48s-2.624-4.267-2.624-7.424c0-3.797 1.387-6.72 4.16-8.768s6.805-3.072 12.096-3.072c2.475 0 4.779.171 6.912.512s3.861.747 5.184 1.216v7.616c-3.499-1.323-7.147-1.984-10.944-1.984-2.688 0-4.8.288-6.336.864s-2.304 1.781-2.304 3.616c0 1.067.277 1.92.832 2.56s1.504 1.216 2.848 1.728 3.232 1.088 5.664 1.728c3.371.896 5.973 1.963 7.808 3.2s3.104 2.645 3.808 4.224 1.056 3.349 1.056 5.312c0 3.584-1.365 6.464-4.096 8.64s-6.933 3.264-12.608 3.264z"/></g></g></svg>

<?xml version="1.0" encoding="UTF-8" standalone="no"?>
<!DOCTYPE svg PUBLIC "-//W3C//DTD SVG 1.1//EN" "http://www.w3.org/Graphics/SVG/1.1/DTD/svg11.dtd">
<svg width="100%" height="100%" viewBox="0 0 372 94" version="1.1" xmlns="http://www.w3.org/2000/svg" xmlns:xlink="http://www.w3.org/1999/xlink" xml:space="preserve" xmlns:serif="http://www.serif.com/" style="fill-rule:evenodd;clip-rule:evenodd;stroke-linejoin:round;stroke-miterlimit:2;">
    <g transform="matrix(1,0,0,1,-350.511,-26.1383)">
        <g id="Artboard2" transform="matrix(0.790626,0,0,0.629847,77.5564,24.7105)">
            <rect x="345.239" y="2.267" width="469.254" height="148.812" style="fill:none;"/>
            <g transform="matrix(1.03939,0,0,1.30471,38.9473,-649.798)">
                <path d="M352.664,502.415C382.886,502.415 407.424,526.952 407.424,557.175C407.424,587.398 382.886,611.935 352.664,611.935C322.441,611.935 297.904,587.398 297.904,557.175C297.904,526.952 322.441,502.415 352.664,502.415ZM336.439,557.175C336.557,541.748 326.54,537.358 324.116,535.955C322.958,535.284 322.512,535.709 323.125,536.899C323.125,536.899 329.287,547.083 329.287,557.175C329.287,567.266 323.125,577.45 323.125,577.451C322.512,578.64 322.958,579.065 324.116,578.394C326.54,576.992 336.557,572.601 336.439,557.175ZM353.272,533.494C343.18,533.494 332.996,528.245 332.996,528.245C331.806,527.632 331.382,528.078 332.052,529.236C332.052,529.236 339.248,541.666 353.272,541.558C367.296,541.666 374.492,529.236 374.492,529.236C375.163,528.078 374.738,527.632 373.548,528.245C373.548,528.245 363.364,533.494 353.272,533.494ZM376.953,557.175C376.953,547.083 382.202,536.899 382.202,536.899C382.815,535.709 382.369,535.284 381.211,535.955C381.211,535.955 368.781,543.151 368.888,557.175C368.781,571.198 381.211,578.395 381.211,578.395C382.369,579.065 382.815,578.641 382.202,577.451C382.202,577.451 376.953,567.267 376.953,557.175ZM353.272,580.855C363.364,580.855 373.548,586.105 373.548,586.105C374.738,586.718 375.163,586.272 374.492,585.114C374.492,585.114 367.296,572.684 353.272,572.791C339.248,572.684 332.052,585.114 332.052,585.114C331.382,586.272 331.806,586.718 332.996,586.105C332.996,586.105 343.18,580.855 353.272,580.855Z"/>
            </g>
            <g transform="matrix(1.26482,0,0,1.58769,-128.623,-621.033)">
                <path d="M507.797,460.999C500.885,460.999 495.594,459.132 491.925,455.399C488.256,451.666 486.421,446.578 486.421,440.135C486.421,433.308 488.202,427.996 491.765,424.199C495.328,420.402 500.65,418.503 507.733,418.503C510.208,418.503 512.437,418.684 514.421,419.047C516.405,419.41 518.272,419.911 520.021,420.551L520.021,428.103C516.394,426.61 512.512,425.863 508.373,425.863C503.68,425.863 500.309,427.036 498.261,429.383C496.213,431.73 495.189,435.314 495.189,440.135C495.189,449.18 499.626,453.703 508.501,453.703C510.506,453.703 512.49,453.522 514.453,453.159C516.416,452.796 518.293,452.252 520.085,451.527L520.085,459.143C518.336,459.698 516.469,460.146 514.485,460.487C512.501,460.828 510.272,460.999 507.797,460.999Z" style="fill-rule:nonzero;"/>
                <path d="M543.573,460.999C530.218,460.999 523.541,453.98 523.541,439.943C523.541,432.391 525.226,426.93 528.597,423.559C531.968,420.188 536.96,418.503 543.573,418.503C550.186,418.503 555.178,420.188 558.549,423.559C561.92,426.93 563.605,432.391 563.605,439.943C563.605,453.98 556.928,460.999 543.573,460.999ZM543.573,453.639C547.456,453.639 550.304,452.519 552.117,450.279C553.93,448.039 554.837,444.594 554.837,439.943C554.837,434.78 553.93,431.143 552.117,429.031C550.304,426.919 547.456,425.863 543.573,425.863C539.69,425.863 536.842,426.919 535.029,429.031C533.216,431.143 532.309,434.78 532.309,439.943C532.309,444.594 533.216,448.039 535.029,450.279C536.842,452.519 539.69,453.639 543.573,453.639Z" style="fill-rule:nonzero;"/>
                <path d="M576.469,450.119C574.976,450.119 573.61,449.756 572.373,449.031C571.136,448.306 570.154,447.335 569.429,446.119C568.704,444.903 568.341,443.527 568.341,441.991C568.341,440.455 568.704,439.068 569.429,437.831C570.154,436.594 571.136,435.612 572.373,434.887C573.61,434.162 574.976,433.799 576.469,433.799C578.005,433.799 579.392,434.162 580.629,434.887C581.866,435.612 582.848,436.594 583.573,437.831C584.298,439.068 584.661,440.455 584.661,441.991C584.661,443.527 584.298,444.903 583.573,446.119C582.848,447.335 581.866,448.306 580.629,449.031C579.392,449.756 578.005,450.119 576.469,450.119Z" style="fill-rule:nonzero;"/>
                <path d="M590.741,460.359L590.741,419.143L599.381,419.143L599.381,453.703L619.669,453.703L619.669,460.359L590.741,460.359Z" style="fill-rule:nonzero;"/>
                <path d="M623.125,460.359L638.869,419.143L648.341,419.143L664.021,460.359L655.061,460.359L651.157,450.439L635.989,450.439L632.149,460.359L623.125,460.359ZM637.269,443.783L649.877,443.783L643.541,427.207L637.269,443.783Z" style="fill-rule:nonzero;"/>
                <path d="M670.037,460.359L670.037,419.143L690.901,419.143C695.04,419.143 698.122,420.114 700.149,422.055C702.176,423.996 703.189,426.738 703.189,430.279C703.189,432.498 702.762,434.343 701.909,435.815C701.056,437.287 699.904,438.428 698.453,439.239C700.373,439.836 701.898,440.828 703.029,442.215C704.16,443.602 704.725,445.639 704.725,448.327C704.725,452.295 703.605,455.292 701.365,457.319C699.125,459.346 695.893,460.359 691.669,460.359L670.037,460.359ZM678.677,436.231L689.301,436.231C691.392,436.231 692.885,435.772 693.781,434.855C694.677,433.938 695.125,432.647 695.125,430.983C695.125,429.148 694.666,427.783 693.749,426.887C692.832,425.991 691.136,425.543 688.661,425.543L678.677,425.543L678.677,436.231ZM678.677,454.023L689.621,454.023C691.797,454.023 693.397,453.575 694.421,452.679C695.445,451.783 695.957,450.204 695.957,447.943C695.957,446.108 695.456,444.743 694.453,443.847C693.45,442.951 691.648,442.503 689.045,442.503L678.677,442.503L678.677,454.023Z" style="fill-rule:nonzero;"/>
                <path d="M723.541,460.999C720.896,460.999 718.432,460.807 716.149,460.423C713.866,460.039 711.893,459.484 710.229,458.759L710.229,451.143C712.106,451.911 714.133,452.53 716.309,452.999C718.485,453.468 720.618,453.703 722.709,453.703C725.696,453.703 727.893,453.426 729.301,452.871C730.709,452.316 731.413,451.058 731.413,449.095C731.413,447.858 731.114,446.876 730.517,446.151C729.92,445.426 728.885,444.775 727.413,444.199C725.941,443.623 723.861,442.972 721.173,442.247C716.864,441.052 713.834,439.559 712.085,437.767C710.336,435.975 709.461,433.5 709.461,430.343C709.461,426.546 710.848,423.623 713.621,421.575C716.394,419.527 720.426,418.503 725.717,418.503C728.192,418.503 730.496,418.674 732.629,419.015C734.762,419.356 736.49,419.762 737.813,420.231L737.813,427.847C734.314,426.524 730.666,425.863 726.869,425.863C724.181,425.863 722.069,426.151 720.533,426.727C718.997,427.303 718.229,428.508 718.229,430.343C718.229,431.41 718.506,432.263 719.061,432.903C719.616,433.543 720.565,434.119 721.909,434.631C723.253,435.143 725.141,435.719 727.573,436.359C730.944,437.255 733.546,438.322 735.381,439.559C737.216,440.796 738.485,442.204 739.189,443.783C739.893,445.362 740.245,447.132 740.245,449.095C740.245,452.679 738.88,455.559 736.149,457.735C733.418,459.911 729.216,460.999 723.541,460.999Z" style="fill-rule:nonzero;"/>
            </g>
        </g>
    </g>
</svg>
